X: 332
T:Horse Keane's Hornpipe
M:C|
L:1/8
C:Jimmy Keane
R:hornpipe
D:Dear Old Erin's Isle
Z:Devin McCabe
K:G
dc|:BdAd GA B/2^c/2d|eE E/2E/2E EG G/2F/2E|DEGA BDdB|BAAB cDAc|
!BdAd GA B/2^c/2d|eE E/2E/2E EG G/2F/2E|DEGB ADFA|1G2GF Gddc:|2G2GF GA B
/2c/2d|
!:e2 c/2e/2f gage|dbgd Bd G/2A/2B|cCGc dBGA|BAAB cDAc|
!BdAd GA B/2^c/2d|eE E/2E/2E EG G/2F/2E|DEGB ADFA|1G2GF GA B/2c/2d:|2G2G
F Gddc||
